assets/images/study/pediatric-frame-fitting.svg

<svg xmlns="http://www.w3.org/2000/svg" width="300" height="200" aria-hidden="false" viewBox="0 0 300 200"><defs><linearGradient id="a" x1="0%" x2="100%" y1="0%" y2="100%"><stop offset="0%" stop-color="#ffe0b2"/><stop offset="100%" stop-color="#ffcc80"/></linearGradient><linearGradient id="b" x1="0%" x2="100%" y1="0%" y2="100%"><stop offset="0%" stop-color="#4fc3f7"/><stop offset="100%" stop-color="#0288d1"/></linearGradient><linearGradient id="d" x1="0%" x2="100%" y1="0%" y2="100%"><stop offset="0%" stop-color="#ef9a9a"/><stop offset="100%" stop-color="#e57373"/></linearGradient><linearGradient id="c" x1="0%" x2="100%" y1="0%" y2="100%"><stop offset="0%" stop-color="#e3f2fd" stop-opacity=".6"/><stop offset="100%" stop-color="#bbdefb" stop-opacity=".4"/></linearGradient></defs><path fill="#f0f0f0" d="M0 0h300v200H0z"/><text x="150" y="20" font-family="Arial" font-size="14" font-size-adjust=".5" font-weight="bold" text-anchor="middle" text-rendering="optimizeLegibility">Pediatric Frame Fitting Guidelines</text><g transform="translate(75 75)"><ellipse fill="url(#a)" stroke="#f57c00" rx="30" ry="40"/><path fill="none" stroke="url(#b)" stroke-width="2" d="M-25-5h7a15 12 0 0 1 36 0h7"/><path fill="url(#b)" stroke="#000" stroke-width=".5" d="m-25-5-3 1-2-4h5Zm50 0 3 1 2-4h-5Z"/><ellipse cx="-13" cy="-5" fill="url(#c)" stroke="#0288d1" stroke-width=".5" rx="10" ry="8"/><ellipse cx="13" cy="-5" fill="url(#c)" stroke="#0288d1" stroke-width=".5" rx="10" ry="8"/><circle cx="-13" cy="-5" r="3" fill="#5d4037" stroke="#000" stroke-width=".5"/><circle cx="13" cy="-5" r="3" fill="#5d4037" stroke="#000" stroke-width=".5"/><path fill="none" stroke="#f57c00" d="M-2 0q3 7.5 6 0m-14 15c5 5 15 5 20 0"/><path fill="none" stroke="#4caf50" stroke-linecap="round" stroke-width="2" d="m-20-25-5 5 10 5m35-10-5 5 10 5"/><text y="40" fill="#388e3c" font-family="Arial" font-size="10" font-size-adjust=".5" font-weight="bold" text-anchor="middle" text-rendering="optimizeLegibility">Good Fit</text></g><g transform="translate(185 75)"><ellipse fill="url(#a)" stroke="#f57c00" rx="30" ry="40"/><path fill="none" stroke="url(#d)" stroke-width="2" d="M-30-5h10a20 15 0 0 1 40 0h10"/><path fill="url(#d)" stroke="#000" stroke-width=".5" d="m-30-5-3 1-2-4h5Zm60 0 3 1 2-4h-5Z"/><ellipse cx="-15" cy="-5" fill="url(#c)" stroke="#e57373" stroke-width=".5" rx="13" ry="10"/><ellipse cx="15" cy="-5" fill="url(#c)" stroke="#e57373" stroke-width=".5" rx="13" ry="10"/><circle cx="-13" cy="-5" r="3" fill="#5d4037" stroke="#000" stroke-width=".5"/><circle cx="13" cy="-5" r="3" fill="#5d4037" stroke="#000" stroke-width=".5"/><path fill="none" stroke="#f57c00" d="M-2 0q3 7.5 6 0m-14 15h20"/><path fill="none" stroke="#f44336" stroke-linecap="round" stroke-width="2" d="m-25-25 10 10m0-10-10 10m40-10 10 10m0-10L15-15"/><text y="40" fill="#d32f2f" font-family="Arial" font-size="10" font-size-adjust=".5" font-weight="bold" text-anchor="middle" text-rendering="optimizeLegibility">Poor Fit</text></g><g transform="translate(150 140)"><rect width="250" height="45" x="-125" fill="#e8f5e9" stroke="#2e7d32" rx="5" ry="5"/><text y="12" font-family="Arial" font-size="9" font-size-adjust=".5" font-weight="bold" text-anchor="middle" text-rendering="optimizeLegibility">Pediatric Frame Fitting Essentials:</text><text y="24" font-family="Arial" font-size="8" font-size-adjust=".5" text-anchor="middle" text-rendering="optimizeLegibility">• Frame width should align with face width</text><text y="34" font-family="Arial" font-size="8" font-size-adjust=".5" text-anchor="middle" text-rendering="optimizeLegibility">• Bridge must fit securely without slipping</text><text y="43" font-family="Arial" font-size="8" font-size-adjust=".5" text-anchor="middle" text-rendering="optimizeLegibility">• Temples should be appropriate length with gentle curve</text></g><g stroke="#01579b"><path stroke-dasharray="2" d="M45 55h60"/><path d="M45 55v-4m60 4v-4"/></g><path stroke="#b71c1c" stroke-dasharray="2" d="M150 55h70"/><path stroke="#b71c1c" d="M150 55v-4m70 4v-4"/><text y="-25" fill="#b71c1c" font-family="Arial" font-size="6" font-size-adjust=".5" text-anchor="middle" text-rendering="optimizeLegibility" transform="translate(185 75)">Too Wide</text></svg>

<svg xmlns="http://www.w3.org/2000/svg" width="300" height="200" viewBox="0 0 300 200">
    <title>Pediatric Frame Fitting</title>
    <defs>
        <linearGradient id="faceGradient" x1="0%" y1="0%" x2="100%" y2="100%">
            <stop offset="0%" stop-color="#ffe0b2" />
            <stop offset="100%" stop-color="#ffcc80" />
        </linearGradient>
        <linearGradient id="frameGradient1" x1="0%" y1="0%" x2="100%" y2="100%">
            <stop offset="0%" stop-color="#4fc3f7" />
            <stop offset="100%" stop-color="#0288d1" />
        </linearGradient>
        <linearGradient id="frameGradient2" x1="0%" y1="0%" x2="100%" y2="100%">
            <stop offset="0%" stop-color="#ef9a9a" />
            <stop offset="100%" stop-color="#e57373" />
        </linearGradient>
        <linearGradient id="lensGradient" x1="0%" y1="0%" x2="100%" y2="100%">
            <stop offset="0%" stop-color="#e3f2fd" stop-opacity="0.6" />
            <stop offset="100%" stop-color="#bbdefb" stop-opacity="0.4" />
        </linearGradient>
    </defs>
    
    <!-- Background -->
    <rect width="300" height="200" fill="#f0f0f0" />
    
    <!-- Title -->
    <text x="150" y="20" font-family="Arial" font-size="14" font-weight="bold" text-anchor="middle">Pediatric Frame Fitting Guidelines</text>
    
    <!-- Good Fit Example -->
    <g transform="translate(75, 75)">
        <!-- Face outline -->
        <ellipse cx="0" cy="0" rx="30" ry="40" fill="url(#faceGradient)" stroke="#f57c00" stroke-width="1" />
        
        <!-- Frames - good fit -->
        <path d="M-25,-5 L-18,-5 A15,12 0 0,1 18,-5 L25,-5" fill="none" stroke="url(#frameGradient1)" stroke-width="2" />
        <path d="M-25,-5 L-28,-4 L-30,-8 L-25,-8 Z" fill="url(#frameGradient1)" stroke="#000" stroke-width="0.5" />
        <path d="M25,-5 L28,-4 L30,-8 L25,-8 Z" fill="url(#frameGradient1)" stroke="#000" stroke-width="0.5" />
        
        <!-- Lenses -->
        <ellipse cx="-13" cy="-5" rx="10" ry="8" fill="url(#lensGradient)" stroke="#0288d1" stroke-width="0.5" />
        <ellipse cx="13" cy="-5" rx="10" ry="8" fill="url(#lensGradient)" stroke="#0288d1" stroke-width="0.5" />
        
        <!-- Eyes -->
        <circle cx="-13" cy="-5" r="3" fill="#5d4037" stroke="#000" stroke-width="0.5" />
        <circle cx="13" cy="-5" r="3" fill="#5d4037" stroke="#000" stroke-width="0.5" />
        
        <!-- Nose -->
        <path d="M-2,0 C0,5 2,5 4,0" fill="none" stroke="#f57c00" stroke-width="1" />
        
        <!-- Mouth - Happy -->
        <path d="M-10,15 C-5,20 5,20 10,15" fill="none" stroke="#f57c00" stroke-width="1" />
        
        <!-- Check marks -->
        <path d="M-20,-25 L-25,-20 L-15,-15" fill="none" stroke="#4caf50" stroke-width="2" stroke-linecap="round" />
        <path d="M20,-25 L15,-20 L25,-15" fill="none" stroke="#4caf50" stroke-width="2" stroke-linecap="round" />
        
        <!-- Label -->
        <text x="0" y="40" font-family="Arial" font-size="10" font-weight="bold" text-anchor="middle" fill="#388e3c">Good Fit</text>
    </g>
    
    <!-- Poor Fit Example -->
    <g transform="translate(185, 75)">
        <!-- Face outline -->
        <ellipse cx="0" cy="0" rx="30" ry="40" fill="url(#faceGradient)" stroke="#f57c00" stroke-width="1" />
        
        <!-- Frames - poor fit, too large -->
        <path d="M-30,-5 L-20,-5 A20,15 0 0,1 20,-5 L30,-5" fill="none" stroke="url(#frameGradient2)" stroke-width="2" />
        <path d="M-30,-5 L-33,-4 L-35,-8 L-30,-8 Z" fill="url(#frameGradient2)" stroke="#000" stroke-width="0.5" />
        <path d="M30,-5 L33,-4 L35,-8 L30,-8 Z" fill="url(#frameGradient2)" stroke="#000" stroke-width="0.5" />
        
        <!-- Lenses -->
        <ellipse cx="-15" cy="-5" rx="13" ry="10" fill="url(#lensGradient)" stroke="#e57373" stroke-width="0.5" />
        <ellipse cx="15" cy="-5" rx="13" ry="10" fill="url(#lensGradient)" stroke="#e57373" stroke-width="0.5" />
        
        <!-- Eyes -->
        <circle cx="-13" cy="-5" r="3" fill="#5d4037" stroke="#000" stroke-width="0.5" />
        <circle cx="13" cy="-5" r="3" fill="#5d4037" stroke="#000" stroke-width="0.5" />
        
        <!-- Nose -->
        <path d="M-2,0 C0,5 2,5 4,0" fill="none" stroke="#f57c00" stroke-width="1" />
        
        <!-- Mouth - Neutral -->
        <path d="M-10,15 L10,15" fill="none" stroke="#f57c00" stroke-width="1" />
        
        <!-- X marks -->
        <path d="M-25,-25 L-15,-15 M-15,-25 L-25,-15" fill="none" stroke="#f44336" stroke-width="2" stroke-linecap="round" />
        <path d="M15,-25 L25,-15 M25,-25 L15,-15" fill="none" stroke="#f44336" stroke-width="2" stroke-linecap="round" />
        
        <!-- Label -->
        <text x="0" y="40" font-family="Arial" font-size="10" font-weight="bold" text-anchor="middle" fill="#d32f2f">Poor Fit</text>
    </g>
    
    <!-- Fitting Guidelines -->
    <g transform="translate(150, 140)">
        <rect x="-125" y="0" width="250" height="45" rx="5" ry="5" fill="#e8f5e9" stroke="#2e7d32" stroke-width="1" />
        <text x="0" y="12" font-family="Arial" font-size="9" font-weight="bold" text-anchor="middle">Pediatric Frame Fitting Essentials:</text>
        <text x="0" y="24" font-family="Arial" font-size="8" text-anchor="middle">• Frame width should align with face width</text>
        <text x="0" y="34" font-family="Arial" font-size="8" text-anchor="middle">• Bridge must fit securely without slipping</text>
        <text x="0" y="43" font-family="Arial" font-size="8" text-anchor="middle">• Temples should be appropriate length with gentle curve</text>
    </g>
    
    <!-- Measurements -->
    <g transform="translate(75, 75)">
        <!-- Width measurement -->
        <line x1="-30" y1="-20" x2="30" y2="-20" stroke="#01579b" stroke-width="1" stroke-dasharray="2" />
        <line x1="-30" y1="-20" x2="-30" y2="-24" stroke="#01579b" stroke-width="1" />
        <line x1="30" y1="-20" x2="30" y2="-24" stroke="#01579b" stroke-width="1" />
    </g>
    
    <g transform="translate(185, 75)">
        <!-- Width measurement - too wide -->
        <line x1="-35" y1="-20" x2="35" y2="-20" stroke="#b71c1c" stroke-width="1" stroke-dasharray="2" />
        <line x1="-35" y1="-20" x2="-35" y2="-24" stroke="#b71c1c" stroke-width="1" />
        <line x1="35" y1="-20" x2="35" y2="-24" stroke="#b71c1c" stroke-width="1" />
        <text x="0" y="-25" font-family="Arial" font-size="6" text-anchor="middle" fill="#b71c1c">Too Wide</text>
    </g>
</svg>
